source/img/phone.svg

<svg width="16" height="18" viewBox="0 0 16 18" fill="none" xmlns="http://www.w3.org/2000/svg">
<path d="M11.1047 8.45663C11.1047 8.64225 11.2583 8.79413 11.446 8.79413C11.6338 8.79413 11.7874 8.64225 11.7874 8.45663C11.7874 6.56326 10.2307 5.02426 8.3156 5.02426C8.12785 5.02426 7.97422 5.17614 7.97422 5.36176C7.97422 5.55076 8.12785 5.69926 8.3156 5.69926C9.85523 5.69926 11.1047 6.93788 11.1047 8.45663ZM8.3156 0.900002C8.12785 0.900002 7.97422 1.05188 7.97422 1.2375C7.97422 1.42314 8.12785 1.575 8.3156 1.575C12.1561 1.575 15.2797 4.66314 15.2797 8.45663C15.2797 8.64225 15.43 8.79413 15.6211 8.79413C15.8089 8.79413 15.9625 8.64225 15.9625 8.45663C15.9625 4.28852 12.5316 0.900002 8.3156 0.900002ZM11.6509 12.0139L11.2037 12.2535C10.4492 12.6619 9.86214 13.7813 8.93111 12.9375L6.50006 10.5L4.39999 8.45663C3.3449 7.1235 4.5263 6.80625 4.93936 6.05701L5.18174 5.61827C5.45484 5.11875 5.55383 4.55851 5.47191 3.99825C5.3934 3.43801 5.13736 2.92838 4.7277 2.52338C4.2293 2.03064 3.56703 1.76064 2.86037 1.76064C2.15371 1.76064 1.48802 2.03064 0.989596 2.52338L0.81551 2.69888C-0.106218 3.61014 -0.212045 5.1795 0.515095 7.1235C1.20125 8.97975 2.58385 10.9913 4.39999 12.7868C7.16857 15.5239 10.2512 17.1 12.4634 17.1C13.3373 17.1 14.0781 16.8536 14.6038 16.3339L14.7813 16.1584C15.2763 15.669 15.5528 15.0143 15.5563 14.3089C15.5528 13.6204 15.2695 12.9454 14.7813 12.4628C13.9586 11.6494 12.6716 11.4671 11.6509 12.0139Z" fill="#161C35"/>
</svg>

<svg width="16" height="18" fill="none" xmlns="http://www.w3.org/2000/svg"><path d="M11.1 8.46c0 .18.16.33.35.33.18 0 .34-.15.34-.33 0-1.9-1.56-3.44-3.47-3.44a.34.34 0 00-.35.34c0 .2.16.34.35.34a2.78 2.78 0 012.78 2.76zM8.32.9a.34.34 0 00-.35.34c0 .18.16.33.35.33a6.93 6.93 0 016.96 6.89c0 .18.15.33.34.33.19 0 .34-.15.34-.33A7.61 7.61 0 008.32.9zm3.33 11.11l-.45.24c-.75.41-1.34 1.53-2.27.69L6.5 10.5 4.4 8.46c-1.06-1.34.13-1.65.54-2.4l.24-.44a2.57 2.57 0 00-.45-3.1c-.5-.49-1.16-.76-1.87-.76-.7 0-1.37.27-1.87.76l-.17.18c-.93.91-1.03 2.48-.3 4.42A16.39 16.39 0 004.4 12.8c2.77 2.73 5.85 4.31 8.06 4.31.88 0 1.62-.25 2.14-.77l.18-.17a2.6 2.6 0 000-3.7c-.82-.81-2.1-1-3.13-.45z" fill="#161C35"/></svg>
